X:1
T:[ID 2-26a]
T:[ID 2-26a]
T:Bezeichnung standardisiert: March March
T:Urheber unbekannt Datum in der hier transkribierten schriftlichen Quelle: 1799
C:Urheber unbekannt
C:Datum in der hier transkribierten schriftlichen Quelle: 1799
%%score 1 2
L:1/8
M:4/4
K:C
V:1 treble nm="Violino Primo"
V:2 treble nm="Violino Secondo"
V:1
 c2 c>c c>ed>c | d2 d>d d4 | e2 e>e e>gf>e | d2 d>d d4 :: g2 g>g c'>gf>e | f2 f>f f4 | %6
 (3ece (3geg c'>gf>e | d2 d>d d4 | c>c c>c c>ed>c | d2 d>d d4 | (3efg (3abc' e2 d/c/B | %11
 c2 c>c c4 :| %12
V:2
 !fermata!E2 E>E E>GF>E | B2 B>B B4 | c2 c>c c>ed>c | B2 B>B B4 :: e2 e>e e>ed>c | d2 d>d d4 | %6
 (3cAc (3ece e>ed>c | B2 B>B BAGF | E2 E>E E>GF>E | B2 B>B B4 | (3cde (3fga G2 F/E/D | E2 E>E E4 :| %12

